humanity-icon-theme/Humanity/mimes/22/application-msword.svg

<?xml version="1.0" encoding="UTF-8" standalone="no"?>
<!-- Created with Inkscape (http://www.inkscape.org/) -->
<svg
   xmlns:svg="http://www.w3.org/2000/svg"
   xmlns="http://www.w3.org/2000/svg"
   xmlns:xlink="http://www.w3.org/1999/xlink"
   version="1.0"
   width="22"
   height="22"
   id="svg3417">
  <defs
     id="defs3419">
    <linearGradient
       id="linearGradient2508">
      <stop
         id="stop2510"
         style="stop-color:#2e4a5a;stop-opacity:1"
         offset="0" />
      <stop
         id="stop2512"
         style="stop-color:#6e8796;stop-opacity:1"
         offset="1" />
    </linearGradient>
    <linearGradient
       x1="-51.786404"
       y1="53.623615"
       x2="-51.786404"
       y2="2.9062471"
       id="linearGradient3404"
       xlink:href="#linearGradient2508"
       gradientUnits="userSpaceOnUse"
       gradientTransform="matrix(0.3922137,0,0,0.4473607,28.199292,-1.7387182)" />
    <linearGradient
       id="linearGradient2867-449-88-871-390-598-476-591-434-148-895-534-212-357-729">
      <stop
         id="stop8022"
         style="stop-color:#85c2cf;stop-opacity:1"
         offset="0" />
      <stop
         id="stop8024"
         style="stop-color:#74a4be;stop-opacity:1"
         offset="0.26238" />
      <stop
         id="stop8026"
         style="stop-color:#5177a0;stop-opacity:1"
         offset="0.704952" />
      <stop
         id="stop8028"
         style="stop-color:#2c5889;stop-opacity:1"
         offset="1" />
    </linearGradient>
    <radialGradient
       cx="14.239056"
       cy="11.49049"
       r="18.000002"
       fx="14.239056"
       fy="11.49049"
       id="radialGradient3402"
       xlink:href="#linearGradient2867-449-88-871-390-598-476-591-434-148-895-534-212-357-729"
       gradientUnits="userSpaceOnUse"
       gradientTransform="matrix(0,1.5890979,-2.5735756,0,35.378535,-19.997893)" />
    <linearGradient
       id="linearGradient3211">
      <stop
         id="stop3213"
         style="stop-color:#ffffff;stop-opacity:1"
         offset="0" />
      <stop
         id="stop3215"
         style="stop-color:#ffffff;stop-opacity:0"
         offset="1" />
    </linearGradient>
    <linearGradient
       x1="24"
       y1="1.9999999"
       x2="24"
       y2="46.01725"
       id="linearGradient3399"
       xlink:href="#linearGradient3211"
       gradientUnits="userSpaceOnUse"
       gradientTransform="matrix(0.4545444,0,0,0.4418595,9.093361e-2,0.3953678)" />
    <linearGradient
       id="linearGradient8265-821-176-38-919-66-249">
      <stop
         id="stop2687"
         style="stop-color:#ffffff;stop-opacity:1"
         offset="0" />
      <stop
         id="stop2689"
         style="stop-color:#ffffff;stop-opacity:0"
         offset="1" />
    </linearGradient>
    <linearGradient
       x1="16.626165"
       y1="15.298182"
       x2="20.054544"
       y2="24.627615"
       id="linearGradient3395"
       xlink:href="#linearGradient8265-821-176-38-919-66-249"
       gradientUnits="userSpaceOnUse"
       gradientTransform="matrix(0.3482993,0,0,0.6967199,2.640816,-3.1585471)" />
    <linearGradient
       id="linearGradient3759">
      <stop
         id="stop3761"
         style="stop-color:#000000;stop-opacity:1"
         offset="0" />
      <stop
         id="stop3763"
         style="stop-color:#000000;stop-opacity:0"
         offset="1" />
    </linearGradient>
    <linearGradient
       x1="26.188938"
       y1="30.4547"
       x2="44.250275"
       y2="16.134642"
       id="linearGradient3415"
       xlink:href="#linearGradient3759"
       gradientUnits="userSpaceOnUse"
       gradientTransform="matrix(0.460148,0,0,0.46875,-20.98379,0.9946038)"
       spreadMethod="reflect" />
    <linearGradient
       id="linearGradient5293">
      <stop
         id="stop5295"
         style="stop-color:#ffffff;stop-opacity:1"
         offset="0" />
      <stop
         id="stop5297"
         style="stop-color:#ffffff;stop-opacity:0"
         offset="1" />
    </linearGradient>
    <linearGradient
       x1="75.854454"
       y1="28"
       x2="91"
       y2="12"
       id="linearGradient3413"
       xlink:href="#linearGradient5293"
       gradientUnits="userSpaceOnUse"
       gradientTransform="matrix(0.5586663,0,0,0.4151018,-51.012789,2.9865953)"
       spreadMethod="reflect" />
    <linearGradient
       id="linearGradient4000">
      <stop
         id="stop4002"
         style="stop-color:#000000;stop-opacity:1"
         offset="0" />
      <stop
         id="stop4004"
         style="stop-color:#000000;stop-opacity:0"
         offset="1" />
    </linearGradient>
    <linearGradient
       x1="75.854454"
       y1="28"
       x2="91"
       y2="12"
       id="linearGradient3411"
       xlink:href="#linearGradient4000"
       gradientUnits="userSpaceOnUse"
       gradientTransform="matrix(0.5586663,0,0,0.4151018,-50.984849,4.0367745)"
       spreadMethod="reflect" />
    <linearGradient
       id="linearGradient2508-790">
      <stop
         id="stop3686"
         style="stop-color:#294351;stop-opacity:1"
         offset="0" />
      <stop
         id="stop3688"
         style="stop-color:#637a87;stop-opacity:1"
         offset="1" />
    </linearGradient>
    <linearGradient
       x1="24.239185"
       y1="44.110138"
       x2="24.239185"
       y2="0.19081046"
       id="linearGradient2579"
       xlink:href="#linearGradient2508-790"
       gradientUnits="userSpaceOnUse"
       gradientTransform="matrix(0.4950662,0,0,0.5045061,-1.000002,-1.4834741)" />
    <linearGradient
       id="linearGradient8589">
      <stop
         id="stop8591"
         style="stop-color:#fefefe;stop-opacity:1"
         offset="0" />
      <stop
         id="stop8593"
         style="stop-color:#cbcbcb;stop-opacity:1"
         offset="1" />
    </linearGradient>
    <linearGradient
       x1="32.892288"
       y1="8.0590115"
       x2="36.358372"
       y2="5.4565363"
       id="linearGradient3392"
       xlink:href="#linearGradient8589"
       gradientUnits="userSpaceOnUse"
       gradientTransform="matrix(0.4778466,0,0,0.5524833,-0.6277461,-7.61283e-2)" />
  </defs>
  <g
     id="layer1">
    <path
       d="M 2.4999608,0.499961 C 6.3955407,0.499961 10.104416,0.499961 13.999999,0.499961 C 14.683367,0.7372579 18.541324,3.628131 19.499999,5.5 C 19.499999,11.229157 19.500038,15.770842 19.500038,21.5 L 2.4999608,21.5 C 2.4999608,14.16664 2.4999608,7.8333189 2.4999608,0.499961 L 2.4999608,0.499961 z"
       id="path4160"
       style="fill:url(#radialGradient3402);fill-opacity:1;fill-rule:nonzero;stroke:url(#linearGradient3404);stroke-width:0.9999218;stroke-linecap:butt;stroke-linejoin:round;marker:none;marker-start:none;marker-mid:none;marker-end:none;stroke-miterlimit:4;stroke-dasharray:none;stroke-dashoffset:0;stroke-opacity:1;visibility:visible;display:inline;overflow:visible;enable-background:accumulate" />
    <path
       d="M 15.403583,17 C 14.53811,17 13.672638,17 12.807165,17 C 12.330199,15.015335 11.817412,13.038857 11.365115,11.04855 C 11.220696,10.421722 11.068635,9.349097 10.983861,8.962629 C 10.707655,11.110362 10.107,13.19049 9.615054,15.292359 C 9.476773,15.861573 9.338492,16.430786 9.200212,17 C 8.33228,17 7.464348,17 6.596417,17 C 5.730945,13.336796 4.865472,9.673591 4,6.0103876 C 4.749911,6.0103876 5.499825,6.0103876 6.249736,6.0103876 C 6.851107,9.028952 7.530962,12.032521 8.005269,15.07569 C 8.206386,13.638565 8.459573,12.208969 8.830286,10.806566 C 9.219137,9.20784 9.607989,7.6091139 9.9968391,6.0103876 C 10.665613,6.0103876 11.334387,6.0103876 12.003161,6.0103876 C 12.513736,8.1306829 13.043834,10.246482 13.542012,12.369632 C 13.719319,13.267218 13.860134,14.171772 14.002108,15.07569 C 14.449532,12.083401 15.131511,9.135284 15.717792,6.1694613 C 15.70546,5.8812832 16.065086,6.0591221 16.24387,6.0103876 C 16.829247,6.0103876 17.414624,6.0103876 18,6.0103876 C 17.134528,9.673591 16.269056,13.336796 15.403583,17 z"
       id="path3473"
       style="font-size:30.51395607px;font-style:normal;font-variant:normal;font-weight:bold;font-stretch:normal;opacity:0.4;fill:#ffffff;fill-opacity:1;stroke:none;stroke-width:1px;stroke-linecap:butt;stroke-linejoin:miter;stroke-opacity:1;font-family:Droid Sans;-inkscape-font-specification:Droid Sans Bold" />
    <path
       d="M 18.5,5.4681839 C 18.5,10.416074 18.5,15.552108 18.5,20.5 C 13.5,20.5 8.5000003,20.5 3.4999991,20.5 C 3.4999991,14.166663 3.4999991,7.8333324 3.4999991,1.4999999 C 6.9372605,1.4999999 10.456498,1.4999999 13.89376,1.4999999"
       id="path2435"
       style="opacity:0.4;fill:none;stroke:url(#linearGradient3399);stroke-width:0.99999988;stroke-linecap:butt;stroke-linejoin:miter;stroke-miterlimit:4;stroke-dasharray:none;stroke-dashoffset:0;stroke-opacity:1;display:inline" />
    <path
       d="M 3.761904,0.99999974 C 3.341062,0.99999974 3,1.6822432 3,2.5240731 L 3,13.671593 C 3.000965,13.765372 3.021524,13.854055 3.056685,13.916116 C 3.091847,13.978178 3.138396,14.007941 3.185033,13.998178 L 18.858503,9.0340487 C 18.939128,9.0086152 18.998873,8.8707152 19,8.7074612 L 19,5.7073195 C 19,5.7073195 13.901785,0.99999974 13.901785,0.99999974 L 3.761904,0.99999974 z"
       id="path3879"
       style="opacity:0.2;fill:url(#linearGradient3395);fill-opacity:1;fill-rule:evenodd;stroke:none;stroke-width:1.00213289;stroke-linecap:round;stroke-linejoin:round;stroke-miterlimit:4;stroke-dasharray:none;stroke-dashoffset:0;stroke-opacity:1" />
    <g
       transform="translate(20.944099,-8.8354e-2)"
       id="g3406">
      <path
         d="M -12.156693,8.088354 C -14.025661,10.399646 -15.893785,12.713872 -17.762754,15.025164 C -17.762754,17.378555 -17.762754,19.734964 -17.762754,22.088354 C -13.323349,22.088354 -8.883976,22.088354 -4.444572,22.088354 C -3.216322,20.569413 -3.027003,20.337871 -1.762754,18.774412 C -1.762754,16.640217 -1.762754,14.514221 -1.762754,12.371202 C -5.431183,10.858993 -9.774487,9.0703524 -12.156693,8.088354 z"
         id="path3743"
         style="opacity:0.1;fill:url(#linearGradient3411);fill-opacity:1;fill-rule:nonzero;stroke:none;stroke-width:0.91176528;stroke-linecap:butt;stroke-linejoin:miter;marker:none;marker-start:none;marker-mid:none;marker-end:none;stroke-miterlimit:4;stroke-dasharray:none;stroke-dashoffset:0;stroke-opacity:1;visibility:visible;display:inline;overflow:visible;enable-background:accumulate" />
      <path
         d="M -12.245345,7.088354 C -14.114314,9.399646 -15.982438,11.713872 -17.851406,14.025164 C -17.851406,16.378555 -17.851406,18.734964 -17.851406,21.088354 C -13.412001,21.088354 -8.972628,21.088354 -4.533224,21.088354 C -3.304974,19.569413 -3.115655,19.337871 -1.851406,17.774412 C -1.851406,15.640217 -1.851406,13.514221 -1.851406,11.371202 C -5.519835,9.858993 -9.863139,8.0703524 -12.245345,7.088354 z"
         id="path3697"
         style="opacity:0.4;fill:url(#linearGradient3413);fill-opacity:1;fill-rule:nonzero;stroke:none;stroke-width:0.91176528;stroke-linecap:butt;stroke-linejoin:miter;marker:none;marker-start:none;marker-mid:none;marker-end:none;stroke-miterlimit:4;stroke-dasharray:none;stroke-dashoffset:0;stroke-opacity:1;visibility:visible;display:inline;overflow:visible;enable-background:accumulate" />
      <path
         d="M -12.11086,9.555067 L -3.543113,13.437154 L -12.11086,9.555067 z M -13.023966,10.796266 L -3.06147,15.31032 L -13.023966,10.796266 z M -13.951452,12.05701 L -10.763453,13.501508 L -13.951452,12.05701 z M -14.864558,13.298208 L -4.902062,17.812263 L -14.864558,13.298208 z M -15.792044,14.558953 L -6.825797,18.621602 L -15.792044,14.558953 z M -16.71234,15.809925 L -8.543093,19.511449 L -16.71234,15.809925 z M -17.625446,17.051123 L -7.8622,21.474896 L -17.625446,17.051123 z"
         id="path3475"
         style="opacity:0.1;fill:none;fill-rule:evenodd;stroke:url(#linearGradient3415);stroke-width:1px;stroke-linecap:butt;stroke-linejoin:miter;stroke-opacity:1" />
    </g>
    <path
       d="M 15.403583,16 C 14.53811,16 13.672638,16 12.807165,16 C 12.330199,14.015335 11.817412,12.038857 11.365115,10.04855 C 11.220696,9.421722 11.068635,8.3490966 10.983861,7.962629 C 10.707655,10.110362 10.107,12.19049 9.615054,14.292359 C 9.476773,14.861573 9.338492,15.430786 9.200212,16 C 8.33228,16 7.464348,16 6.596417,16 C 5.730945,12.336796 4.865472,8.6735913 4,5.0103876 C 4.749911,5.0103876 5.499825,5.0103876 6.249736,5.0103876 C 6.851107,8.0289523 7.530962,11.032521 8.005269,14.07569 C 8.206386,12.638565 8.459573,11.208969 8.830286,9.806566 C 9.219137,8.2078401 9.607989,6.6091139 9.9968391,5.0103876 C 10.665613,5.0103876 11.334387,5.0103876 12.003161,5.0103876 C 12.513736,7.1306829 13.043834,9.246482 13.542012,11.369632 C 13.719319,12.267218 13.860134,13.171772 14.002108,14.07569 C 14.449532,11.083401 15.131511,8.1352838 15.717792,5.1694613 C 15.70546,4.8812832 16.065086,5.0591221 16.24387,5.0103876 C 16.829247,5.0103876 17.414624,5.0103876 18,5.0103876 C 17.134528,8.6735913 16.269056,12.336796 15.403583,16 z"
       id="text2612"
       style="font-size:30.51395607px;font-style:normal;font-variant:normal;font-weight:bold;font-stretch:normal;fill:url(#linearGradient2579);fill-opacity:1;stroke:none;stroke-width:1px;stroke-linecap:butt;stroke-linejoin:miter;stroke-opacity:1;font-family:Droid Sans;-inkscape-font-specification:Droid Sans Bold" />
    <path
       d="M 13.075473,1 C 14.231776,1.3287671 13.414532,5.6143789 13.414532,5.6143789 C 13.414532,5.6143789 17.92992,5.1866427 19.022242,6.809375 C 20.511395,9.0216317 18.954022,6.1742029 18.848795,5.9876778 C 18.092867,4.6476323 14.982455,1.4405918 13.803386,1.0464703 C 13.715154,1.0169778 13.51951,1 13.075473,1 z"
       id="path3370"
       style="opacity:0.2;fill:#000000;fill-opacity:1;fill-rule:evenodd;stroke:none;display:inline" />
    <path
       d="M 12.999999,1 C 14.526165,1 13.999999,5 13.999999,5 C 13.999999,5 18.992073,4.54674 18.992073,7 C 18.992073,6.4022581 19.047823,5.5215662 18.928003,5.3440674 C 18.088896,4.1010616 15.184238,1.4821803 14.129934,1.0464703 C 14.043956,1.0109384 13.444036,1 12.999999,1 z"
       id="path4474"
       style="fill:url(#linearGradient3392);fill-opacity:1;fill-rule:evenodd;stroke:none;display:inline" />
  </g>
</svg>

<?xml version="1.0" encoding="UTF-8" standalone="no"?>
<!-- Created with Inkscape (http://www.inkscape.org/) -->
<svg id="svg3417" xmlns="http://www.w3.org/2000/svg" height="22" width="22" version="1.0" xmlns:xlink="http://www.w3.org/1999/xlink">
 <defs id="defs3419">
  <linearGradient id="linearGradient3404" y2="2.9062" gradientUnits="userSpaceOnUse" x2="-51.786" gradientTransform="matrix(.39221 0 0 .44736 28.199 -1.7387)" y1="53.624" x1="-51.786">
   <stop id="stop2510" style="stop-color:#2e4a5a" offset="0"/>
   <stop id="stop2512" style="stop-color:#6e8796" offset="1"/>
  </linearGradient>
  <radialGradient id="radialGradient3402" gradientUnits="userSpaceOnUse" cy="11.49" cx="14.239" gradientTransform="matrix(0 1.5891 -2.5736 0 35.379 -19.998)" r="18">
   <stop id="stop8022" style="stop-color:#85c2cf" offset="0"/>
   <stop id="stop8024" style="stop-color:#74a4be" offset=".26238"/>
   <stop id="stop8026" style="stop-color:#5177a0" offset=".70495"/>
   <stop id="stop8028" style="stop-color:#2c5889" offset="1"/>
  </radialGradient>
  <linearGradient id="linearGradient3399" y2="46.017" gradientUnits="userSpaceOnUse" x2="24" gradientTransform="matrix(.45454 0 0 .44186 .090934 .39537)" y1="2" x1="24">
   <stop id="stop3213" style="stop-color:#fff" offset="0"/>
   <stop id="stop3215" style="stop-color:#fff;stop-opacity:0" offset="1"/>
  </linearGradient>
  <linearGradient id="linearGradient3395" y2="24.628" gradientUnits="userSpaceOnUse" x2="20.055" gradientTransform="matrix(.34830 0 0 .69672 2.6408 -3.1585)" y1="15.298" x1="16.626">
   <stop id="stop2687" style="stop-color:#fff" offset="0"/>
   <stop id="stop2689" style="stop-color:#fff;stop-opacity:0" offset="1"/>
  </linearGradient>
  <linearGradient id="linearGradient3415" y2="16.135" spreadMethod="reflect" gradientUnits="userSpaceOnUse" x2="44.25" gradientTransform="matrix(.46015 0 0 .46875 -20.984 .99460)" y1="30.455" x1="26.189">
   <stop id="stop3761" offset="0"/>
   <stop id="stop3763" style="stop-opacity:0" offset="1"/>
  </linearGradient>
  <linearGradient id="linearGradient3413" y2="12" spreadMethod="reflect" gradientUnits="userSpaceOnUse" x2="91" gradientTransform="matrix(.55867 0 0 .41510 -51.013 2.9866)" y1="28" x1="75.854">
   <stop id="stop5295" style="stop-color:#fff" offset="0"/>
   <stop id="stop5297" style="stop-color:#fff;stop-opacity:0" offset="1"/>
  </linearGradient>
  <linearGradient id="linearGradient3411" y2="12" spreadMethod="reflect" gradientUnits="userSpaceOnUse" x2="91" gradientTransform="matrix(.55867 0 0 .41510 -50.985 4.0368)" y1="28" x1="75.854">
   <stop id="stop4002" offset="0"/>
   <stop id="stop4004" style="stop-opacity:0" offset="1"/>
  </linearGradient>
  <linearGradient id="linearGradient2579" y2=".19081" gradientUnits="userSpaceOnUse" x2="24.239" gradientTransform="matrix(.49507 0 0 .50451 -1 -1.4835)" y1="44.11" x1="24.239">
   <stop id="stop3686" style="stop-color:#294351" offset="0"/>
   <stop id="stop3688" style="stop-color:#637a87" offset="1"/>
  </linearGradient>
  <linearGradient id="linearGradient3392" y2="5.4565" gradientUnits="userSpaceOnUse" x2="36.358" gradientTransform="matrix(.47785 0 0 .55248 -.62775 -.076128)" y1="8.059" x1="32.892">
   <stop id="stop8591" style="stop-color:#fefefe" offset="0"/>
   <stop id="stop8593" style="stop-color:#cbcbcb" offset="1"/>
  </linearGradient>
 </defs>
 <g id="layer1">
  <path id="path4160" style="stroke-linejoin:round;stroke-width:.99992;stroke:url(#linearGradient3404);fill:url(#radialGradient3402)" d="m2.5 0.49996h11.5c0.683 0.2373 4.541 3.1281 5.5 5v16h-17v-21-0.00004z"/>
  <path id="path3473" style="opacity:.4;fill:#fff" d="m15.404 17h-2.597c-0.477-1.985-0.99-3.961-1.442-5.951-0.144-0.627-0.296-1.6999-0.381-2.0864-0.276 2.1474-0.877 4.2274-1.3689 6.3294-0.1383 0.57-0.2766 1.139-0.4149 1.708h-2.6038c-0.8655-3.663-1.7309-7.3264-2.5964-10.99 0.7499 0.0004 1.4998 0.0004 2.2497 0.0004 0.6014 3.0186 1.2813 6.0226 1.7556 9.0656 0.2011-1.437 0.4543-2.867 0.825-4.269 0.3888-1.5992 0.7777-3.1979 1.1665-4.7966h2.0062c0.511 2.1203 1.041 4.2356 1.539 6.3596 0.177 0.897 0.318 1.802 0.46 2.706 0.448-2.993 1.13-5.9407 1.716-8.9065-0.013-0.2882 0.347-0.1104 0.526-0.1591h1.756c-0.865 3.6632-1.731 7.3266-2.596 10.99z"/>
  <path id="path2435" style="opacity:.4;stroke:url(#linearGradient3399);fill:none" d="m18.5 5.4682v15.032h-15v-19h10.394"/>
  <path id="path3879" style="opacity:.2;fill:url(#linearGradient3395);fill-rule:evenodd" d="m3.7619 1c-0.4208 0-0.7619 0.6822-0.7619 1.5241v11.148c0.001 0.093 0.0215 0.182 0.0567 0.244 0.0351 0.062 0.0817 0.092 0.1283 0.082l15.674-4.964c0.08-0.0254 0.14-0.1633 0.141-0.3265v-3.0002l-5.098-4.7073h-10.14z"/>
  <g id="g3406" transform="translate(20.944 -.088354)">
   <path id="path3743" style="opacity:.1;fill:url(#linearGradient3411)" d="m-12.157 8.0884c-1.869 2.3116-3.737 4.6256-5.606 6.9366v7.063h13.318c1.2287-1.519 1.418-1.75 2.6822-3.314v-6.403c-3.6684-1.512-8.0117-3.3006-10.394-4.2826z"/>
   <path id="path3697" style="opacity:.4;fill:url(#linearGradient3413)" d="m-12.245 7.0884c-1.869 2.3112-3.737 4.6256-5.606 6.9366v7.063h13.318c1.228-1.519 1.4173-1.75 2.6816-3.314v-6.403c-3.6684-1.512-8.0117-3.3006-10.394-4.2826z"/>
   <path id="path3475" style="opacity:.1;stroke:url(#linearGradient3415);stroke-width:1px;fill:none" d="m-12.111 9.5551l8.5679 3.8819-8.5679-3.8819zm-0.913 1.2409l9.9625 4.514-9.9625-4.514zm-0.927 1.261l3.188 1.445-3.188-1.445zm-0.914 1.241l9.9629 4.514-9.9629-4.514zm-0.927 1.261l8.9662 4.063-8.9662-4.063zm-0.92 1.251l8.1689 3.701-8.1689-3.701zm-0.913 1.241l9.7628 4.424-9.7628-4.424z"/>
  </g>
  <path id="text2612" style="fill:url(#linearGradient2579)" d="m15.404 16h-2.597c-0.477-1.985-0.99-3.961-1.442-5.951-0.144-0.6273-0.296-1.6999-0.381-2.0864-0.276 2.1474-0.877 4.2274-1.3689 6.3294-0.1383 0.57-0.2766 1.139-0.4149 1.708h-2.6038c-0.8655-3.663-1.7309-7.3264-2.5964-10.99 0.7499 0.0004 1.4998 0.0004 2.2497 0.0004 0.6014 3.0186 1.2813 6.0226 1.7556 9.0656 0.2011-1.437 0.4543-2.867 0.825-4.2694 0.3888-1.5988 0.7777-3.1975 1.1665-4.7962h2.0062c0.511 2.1203 1.041 4.2361 1.539 6.3596 0.177 0.897 0.318 1.802 0.46 2.706 0.448-2.993 1.13-5.9407 1.716-8.9065-0.013-0.2882 0.347-0.1104 0.526-0.1591h1.756c-0.865 3.6632-1.731 7.3266-2.596 10.99z"/>
  <path id="path3370" style="opacity:.2;fill-rule:evenodd" d="m13.075 1c1.157 0.3288 0.34 4.6144 0.34 4.6144s4.515-0.4278 5.607 1.195c1.489 2.2122-0.068-0.6352-0.173-0.8217-0.756-1.3401-3.867-4.5471-5.046-4.9412-0.088-0.0295-0.283-0.0465-0.728-0.0465z"/>
  <path id="path4474" style="fill:url(#linearGradient3392);fill-rule:evenodd" d="m13 1c1.526 0 1 4 1 4s4.992-0.4533 4.992 2c0-0.5977 0.056-1.4784-0.064-1.6559-0.839-1.243-3.744-3.8619-4.798-4.2976-0.086-0.0356-0.686-0.0465-1.13-0.0465z"/>
 </g>
</svg>
